svg/more-alt.svg

<svg xmlns="http://www.w3.org/2000/svg" viewBox="0 0 16 64" enable-background="new 0 0 16 64"><style type="text/css">.st0{fill:#343434;}</style><title>more-alt</title><desc>Created with Sketch.</desc><path class="st0" d="M8 16c4.4 0 8-3.6 8-8s-3.6-8-8-8-8 3.6-8 8 3.6 8 8 8zm0-12c2.2 0 4 1.8 4 4s-1.8 4-4 4-4-1.8-4-4 1.8-4 4-4zM8 48c-4.4 0-8 3.6-8 8s3.6 8 8 8 8-3.6 8-8-3.6-8-8-8zm0 12c-2.2 0-4-1.8-4-4s1.8-4 4-4 4 1.8 4 4-1.8 4-4 4zM8 24c-4.4 0-8 3.6-8 8s3.6 8 8 8 8-3.6 8-8-3.6-8-8-8zm0 12c-2.2 0-4-1.8-4-4s1.8-4 4-4 4 1.8 4 4-1.8 4-4 4z"/></svg>

<?xml version="1.0" encoding="utf-8"?>
<!-- Generator: Adobe Illustrator 21.0.0, SVG Export Plug-In . SVG Version: 6.00 Build 0)  -->
<svg version="1.1" id="Layer_1" xmlns="http://www.w3.org/2000/svg" xmlns:xlink="http://www.w3.org/1999/xlink" x="0px" y="0px"
	 viewBox="0 0 16 64" style="enable-background:new 0 0 16 64;" xml:space="preserve">
<style type="text/css">
	.st0{fill:#343434;}
</style>
<title>more-alt</title>
<desc>Created with Sketch.</desc>
<g>
	<path class="st0" d="M8,16c4.4,0,8-3.6,8-8s-3.6-8-8-8S0,3.6,0,8S3.6,16,8,16z M8,4c2.2,0,4,1.8,4,4c0,2.2-1.8,4-4,4s-4-1.8-4-4
		C4,5.8,5.8,4,8,4z"/>
	<path class="st0" d="M8,48c-4.4,0-8,3.6-8,8s3.6,8,8,8s8-3.6,8-8S12.4,48,8,48z M8,60c-2.2,0-4-1.8-4-4c0-2.2,1.8-4,4-4s4,1.8,4,4
		C12,58.2,10.2,60,8,60z"/>
	<path class="st0" d="M8,24c-4.4,0-8,3.6-8,8s3.6,8,8,8s8-3.6,8-8S12.4,24,8,24z M8,36c-2.2,0-4-1.8-4-4c0-2.2,1.8-4,4-4s4,1.8,4,4
		C12,34.2,10.2,36,8,36z"/>
</g>
</svg>
